SVG_Azure_Grouped/IoT/IoT Sphere.svg

<?xml version="1.0" encoding="UTF-8" standalone="no"?>
<!-- Generated by Microsoft Visio, SVG Export IoT Sphere.svg Page-1 -->

<svg
   xmlns:dc="http://purl.org/dc/elements/1.1/"
   xmlns:cc="http://creativecommons.org/ns#"
   xmlns:rdf="http://www.w3.org/1999/02/22-rdf-syntax-ns#"
   xmlns:svg="http://www.w3.org/2000/svg"
   xmlns="http://www.w3.org/2000/svg"
   xmlns:sodipodi="http://sodipodi.sourceforge.net/DTD/sodipodi-0.dtd"
   xmlns:inkscape="http://www.inkscape.org/namespaces/inkscape"
   width="0.70865935in"
   height="0.78734112in"
   viewBox="0 0 51.023416 56.688701"
   xml:space="preserve"
   class="st6"
   version="1.1"
   id="svg81"
   sodipodi:docname="IoT Sphere.svg"
   style="font-size:12px;overflow:visible;color-interpolation-filters:sRGB;fill:none;fill-rule:evenodd;stroke-linecap:square;stroke-miterlimit:3"
   inkscape:version="0.92.5 (2060ec1f9f, 2020-04-08)"><metadata
   id="metadata85"><rdf:RDF><cc:Work
       rdf:about=""><dc:format>image/svg+xml</dc:format><dc:type
         rdf:resource="http://purl.org/dc/dcmitype/StillImage" /></cc:Work></rdf:RDF></metadata><sodipodi:namedview
   pagecolor="#ffffff"
   bordercolor="#666666"
   borderopacity="1"
   objecttolerance="10"
   gridtolerance="10"
   guidetolerance="10"
   inkscape:pageopacity="0"
   inkscape:pageshadow="2"
   inkscape:window-width="640"
   inkscape:window-height="480"
   id="namedview83"
   showgrid="false"
   inkscape:zoom="1.8365233"
   inkscape:cx="34.015635"
   inkscape:cy="18.89755"
   inkscape:window-x="0"
   inkscape:window-y="0"
   inkscape:window-maximized="0"
   inkscape:current-layer="svg81" />
	<style
   type="text/css"
   id="style2">
	<![CDATA[
		.st1 {fill:url(#grad0-6);stroke:none;stroke-linecap:butt;stroke-width:2.02824}
		.st2 {fill:url(#grad0-10);stroke:none;stroke-linecap:butt;stroke-width:2.02824}
		.st3 {fill:#50e6ff;stroke:none;stroke-linecap:butt;stroke-width:2.02824}
		.st4 {fill:#ffffff;stroke:none;stroke-linecap:butt;stroke-width:2.02824}
		.st5 {fill:#b3b3b3;stroke:none;stroke-linecap:butt;stroke-width:2.02824}
		.st6 {fill:none;fill-rule:evenodd;font-size:12px;overflow:visible;stroke-linecap:square;stroke-miterlimit:3}
	]]>
	</style>

	<defs
   id="Patterns_And_Gradients">
		<linearGradient
   id="grad0-6"
   x1="0"
   y1="40.388067"
   x2="52.780938"
   y2="40.388067"
   gradientTransform="scale(0.96670509,1.0344416)"
   gradientUnits="userSpaceOnUse">
			<stop
   offset="0"
   stop-color="#198ab3"
   stop-opacity="1"
   id="stop4" />
			<stop
   offset="0.44"
   stop-color="#28b7db"
   stop-opacity="1"
   id="stop6" />
			<stop
   offset="0.775"
   stop-color="#32d4f5"
   stop-opacity="1"
   id="stop8" />
		</linearGradient>
		<linearGradient
   id="grad0-10"
   x1="0"
   y1="58.851346"
   x2="28.690874"
   y2="58.851346"
   gradientTransform="scale(0.90830276,1.1009545)"
   gradientUnits="userSpaceOnUse">
			<stop
   offset="0"
   stop-color="#ffffff"
   stop-opacity="1"
   id="stop11" />
			<stop
   offset="1"
   stop-color="#ffffff"
   stop-opacity="1"
   id="stop13" />
		</linearGradient>
	</defs>
	<g
   id="g79"
   transform="translate(-5.1024712,-5.673498)">
		<title
   id="title17">Page-1</title>
		<g
   id="group20461-1"
   transform="translate(5.10236,-34.0157)">
			<title
   id="title19">IoT Sphere.20461</title>
			<g
   id="group20462-2">
				<title
   id="title21">g40</title>
				<g
   id="shape20463-3">
					<title
   id="title23">circle16</title>
					<ellipse
   cx="25.511801"
   cy="69.078499"
   rx="25.511801"
   ry="27.2994"
   class="st1"
   id="ellipse25"
   style="fill:url(#grad0-6);stroke:none;stroke-width:2.02823997;stroke-linecap:butt" />
				</g>
				<g
   id="shape20464-7"
   transform="translate(12.4828,-8.48852)">
					<title
   id="title28">path18</title>
					<path
   d="M 12.46,96.01 C 9.54,94.08 0,87.18 0,79.13 v -10.3 l 1.02,-0.07 a 12.1376,12.9881 -180 0 0 7.06,-2.38 7.44345,7.96501 0 0 1 4.95,-1.57 7.53649,8.06458 0 0 1 4.95,1.56 12.1496,13.001 -180 0 0 7.05,2.39 l 1.03,0.07 v 10.3 c 0,8.05 -9.54,14.95 -12.47,16.88 l -0.56,0.37 z"
   class="st2"
   id="path30"
   inkscape:connector-curvature="0"
   style="fill:url(#grad0-10);stroke:none;stroke-width:2.02823997;stroke-linecap:butt" />
				</g>
				<g
   id="shape20465-11"
   transform="translate(13.8634,-10.2228)">
					<title
   id="title33">path20</title>
					<path
   d="M 11.65,96.38 C 5.99,92.62 0,86.6 0,80.86 v -8.91 a 13.3442,14.2792 -180 0 0 7.46,-2.61 6.08382,6.51011 0 0 1 4.19,-1.32 6.22188,6.65785 0 0 1 4.18,1.32 13.3742,14.3113 -180 0 0 7.47,2.61 v 8.91 c 0,5.74 -5.99,11.76 -11.65,15.52 z"
   class="st3"
   id="path35"
   inkscape:connector-curvature="0"
   style="fill:#50e6ff;stroke:none;stroke-width:2.02823997;stroke-linecap:butt" />
				</g>
				<g
   id="group20466-13"
   transform="translate(40.4138,-7.57835)">
					<title
   id="title38">g26</title>
					<g
   id="shape20467-14"
   transform="translate(0.234046,-0.261411)">
						<title
   id="title40">circle22</title>
						<ellipse
   cx="3.90781"
   cy="92.196297"
   rx="3.90781"
   ry="4.1816301"
   class="st4"
   id="ellipse42"
   style="fill:#ffffff;stroke:none;stroke-width:2.02823997;stroke-linecap:butt" />
					</g>
					<g
   id="shape20468-16">
						<title
   id="title45">path24</title>
						<path
   d="m 4.14,87.75 a 3.90181,4.17521 0 1 1 -3.9,4.18 3.90181,4.17521 0 0 1 3.9,-4.18 z m 0,-2.09 a 5.86472,6.27566 -180 1 0 5.87,6.27 5.87072,6.28208 -180 0 0 -5.86,-6.27 z"
   class="st5"
   id="path47"
   inkscape:connector-curvature="0"
   style="fill:#b3b3b3;stroke:none;stroke-width:2.02823997;stroke-linecap:butt" />
					</g>
				</g>
				<g
   id="group20469-18"
   transform="translate(2.31801,-7.58062)">
					<title
   id="title51">g32</title>
					<g
   id="shape20470-19"
   transform="translate(0.242171,-0.25914)">
						<title
   id="title53">circle28</title>
						<ellipse
   cx="3.90781"
   cy="92.196297"
   rx="3.90781"
   ry="4.1816301"
   class="st4"
   id="ellipse55"
   style="fill:#ffffff;stroke:none;stroke-width:2.02823997;stroke-linecap:butt" />
					</g>
					<g
   id="shape20471-21">
						<title
   id="title58">path30</title>
						<path
   d="m 4.15,87.76 a 3.90181,4.17521 0 1 1 -3.9,4.17 3.90181,4.17521 0 0 1 3.9,-4.17 z m 0,-2.1 a 5.86472,6.27566 -180 1 0 5.86,6.28 5.86772,6.27887 -180 0 0 -5.86,-6.28 z"
   class="st5"
   id="path60"
   inkscape:connector-curvature="0"
   style="fill:#b3b3b3;stroke:none;stroke-width:2.02823997;stroke-linecap:butt" />
					</g>
				</g>
				<g
   id="group20472-23"
   transform="translate(21.3608,-45.9808)">
					<title
   id="title64">g38</title>
					<g
   id="shape20473-24"
   transform="translate(0.243233,-0.254793)">
						<title
   id="title66">circle34</title>
						<ellipse
   cx="3.90781"
   cy="92.196297"
   rx="3.90781"
   ry="4.1816301"
   class="st4"
   id="ellipse68"
   style="fill:#ffffff;stroke:none;stroke-width:2.02823997;stroke-linecap:butt" />
					</g>
					<g
   id="shape20474-26">
						<title
   id="title71">path36</title>
						<path
   d="m 4.15,87.76 a 3.90181,4.17521 0 1 1 -3.9,4.18 3.90181,4.17521 0 0 1 3.9,-4.18 z m 0,-2.09 a 5.86472,6.27566 -180 1 0 5.86,6.27 5.87072,6.28208 -180 0 0 -5.86,-6.27 z"
   class="st5"
   id="path73"
   inkscape:connector-curvature="0"
   style="fill:#b3b3b3;stroke:none;stroke-width:2.02823997;stroke-linecap:butt" />
					</g>
				</g>
			</g>
		</g>
	</g>
</svg>

<?xml version="1.0" encoding="UTF-8" standalone="no"?>
<!DOCTYPE svg PUBLIC "-//W3C//DTD SVG 1.1//EN" "http://www.w3.org/Graphics/SVG/1.1/DTD/svg11.dtd">
<!-- Generated by Microsoft Visio, SVG Export IoT Sphere.svg Page-1 -->
<svg xmlns="http://www.w3.org/2000/svg" xmlns:xlink="http://www.w3.org/1999/xlink" xmlns:ev="http://www.w3.org/2001/xml-events"
		width="0.850394in" height="1.33858in" viewBox="0 0 61.2283 96.378" xml:space="preserve" color-interpolation-filters="sRGB"
		class="st6">
	<style type="text/css">
	<![CDATA[
		.st1 {fill:url(#grad0-6);stroke:none;stroke-linecap:butt;stroke-width:2.02824}
		.st2 {fill:url(#grad0-10);stroke:none;stroke-linecap:butt;stroke-width:2.02824}
		.st3 {fill:#50e6ff;stroke:none;stroke-linecap:butt;stroke-width:2.02824}
		.st4 {fill:#ffffff;stroke:none;stroke-linecap:butt;stroke-width:2.02824}
		.st5 {fill:#b3b3b3;stroke:none;stroke-linecap:butt;stroke-width:2.02824}
		.st6 {fill:none;fill-rule:evenodd;font-size:12px;overflow:visible;stroke-linecap:square;stroke-miterlimit:3}
	]]>
	</style>

	<defs id="Patterns_And_Gradients">
		<linearGradient id="grad0-6" x1="0" y1="0" x2="1" y2="0" gradientTransform="rotate(-90 0.5 0.5)">
			<stop offset="0" stop-color="#198ab3" stop-opacity="1"/>
			<stop offset="0.44" stop-color="#28b7db" stop-opacity="1"/>
			<stop offset="0.775" stop-color="#32d4f5" stop-opacity="1"/>
		</linearGradient>
		<linearGradient id="grad0-10" x1="0" y1="0" x2="1" y2="0" gradientTransform="rotate(-35.622745128455 0.5 0.5)">
			<stop offset="0" stop-color="#ffffff" stop-opacity="1"/>
			<stop offset="1" stop-color="#ffffff" stop-opacity="1"/>
		</linearGradient>
	</defs>
	<g>
		<title>Page-1</title>
		<g id="group20006-1" transform="translate(5.10236,-34.0157)">
			<title>IoT Sphere.20006</title>
			<g id="group20007-2">
				<title>g40</title>
				<g id="shape20008-3">
					<title>circle16</title>
					<ellipse cx="25.5118" cy="69.0785" rx="25.5118" ry="27.2994" class="st1"/>
				</g>
				<g id="shape20009-7" transform="translate(12.4828,-8.48852)">
					<title>path18</title>
					<path d="M12.46 96.01 C9.54 94.08 0 87.18 0 79.13 L0 68.83 L1.02 68.76 A12.1376 12.9881 -180 0 0 8.08 66.38 A7.44345
								 7.96501 0 0 1 13.03 64.81 A7.53649 8.06458 0 0 1 17.98 66.37 A12.1496 13.001 -180 0 0 25.03 68.76
								 L26.06 68.83 L26.06 79.13 C26.06 87.18 16.52 94.08 13.59 96.01 L13.03 96.38 L12.46 96.01 Z"
							class="st2"/>
				</g>
				<g id="shape20010-11" transform="translate(13.8634,-10.2228)">
					<title>path20</title>
					<path d="M11.65 96.38 C5.99 92.62 0 86.6 0 80.86 L0 71.95 A13.3442 14.2792 -180 0 0 7.46 69.34 A6.08382 6.51011
								 0 0 1 11.65 68.02 A6.22188 6.65785 0 0 1 15.83 69.34 A13.3742 14.3113 -180 0 0 23.3 71.95 L23.3
								 80.86 C23.3 86.6 17.31 92.62 11.65 96.38 Z" class="st3"/>
				</g>
				<g id="group20011-13" transform="translate(40.4138,-7.57835)">
					<title>g26</title>
					<g id="shape20012-14" transform="translate(0.234046,-0.261411)">
						<title>circle22</title>
						<ellipse cx="3.90781" cy="92.1963" rx="3.90781" ry="4.18163" class="st4"/>
					</g>
					<g id="shape20013-16">
						<title>path24</title>
						<path d="M4.14 87.75 A3.90181 4.17521 0 1 1 0.24 91.93 A3.90181 4.17521 0 0 1 4.14 87.75 ZM4.14 85.66 A5.86472
									 6.27566 -180 1 0 10.01 91.93 A5.87072 6.28208 -180 0 0 4.15 85.66 L4.14 85.66 Z" class="st5"/>
					</g>
				</g>
				<g id="group20014-18" transform="translate(2.31801,-7.58062)">
					<title>g32</title>
					<g id="shape20015-19" transform="translate(0.242171,-0.25914)">
						<title>circle28</title>
						<ellipse cx="3.90781" cy="92.1963" rx="3.90781" ry="4.18163" class="st4"/>
					</g>
					<g id="shape20016-21">
						<title>path30</title>
						<path d="M4.15 87.76 A3.90181 4.17521 0 1 1 0.25 91.93 A3.90181 4.17521 0 0 1 4.15 87.76 ZM4.15 85.66 A5.86472
									 6.27566 -180 1 0 10.01 91.94 A5.86772 6.27887 -180 0 0 4.15 85.66 Z" class="st5"/>
					</g>
				</g>
				<g id="group20017-23" transform="translate(21.3608,-45.9808)">
					<title>g38</title>
					<g id="shape20018-24" transform="translate(0.243233,-0.254793)">
						<title>circle34</title>
						<ellipse cx="3.90781" cy="92.1963" rx="3.90781" ry="4.18163" class="st4"/>
					</g>
					<g id="shape20019-26">
						<title>path36</title>
						<path d="M4.15 87.76 A3.90181 4.17521 0 1 1 0.25 91.94 A3.90181 4.17521 0 0 1 4.15 87.76 ZM4.15 85.67 A5.86472
									 6.27566 -180 1 0 10.01 91.94 A5.87072 6.28208 -180 0 0 4.15 85.67 Z" class="st5"/>
					</g>
				</g>
			</g>
		</g>
	</g>
</svg>
